public/images/logo.svg

<svg width="170" height="41" viewBox="0 0 170 41" fill="none" xmlns="http://www.w3.org/2000/svg">
<path fill-rule="evenodd" clip-rule="evenodd" d="M20.6841 40.138C31.7298 40.138 40.6841 31.1837 40.6841 20.138C40.6841 9.09234 31.7298 0.138031 20.6841 0.138031C9.63837 0.138031 0.684082 9.09234 0.684082 20.138C0.684082 31.1837 9.63837 40.138 20.6841 40.138ZM26.9234 9.45487C27.2271 8.37608 26.1802 7.73816 25.2241 8.41933L11.8772 17.9276C10.8403 18.6663 11.0034 20.138 12.1222 20.138H15.6368V20.1108H22.4866L16.9053 22.0801L14.4448 30.8212C14.1411 31.9 15.1879 32.5379 16.1441 31.8567L29.491 22.3485C30.5279 21.6098 30.3647 20.138 29.246 20.138H23.9162L26.9234 9.45487Z" fill="#F15757"/>
<path d="M50.517 11.5455H55.0682L59.875 23.2727H60.0795L64.8864 11.5455H69.4375V29H65.858V17.6392H65.7131L61.196 28.9148H58.7585L54.2415 17.5966H54.0966V29H50.517V11.5455ZM78.3246 29.2557C77.0007 29.2557 75.8558 28.9744 74.8899 28.4119C73.9297 27.8437 73.1882 27.054 72.6655 26.0426C72.1428 25.0256 71.8814 23.8466 71.8814 22.5057C71.8814 21.1534 72.1428 19.9716 72.6655 18.9602C73.1882 17.9432 73.9297 17.1534 74.8899 16.5909C75.8558 16.0227 77.0007 15.7386 78.3246 15.7386C79.6484 15.7386 80.7905 16.0227 81.7507 16.5909C82.7166 17.1534 83.4609 17.9432 83.9837 18.9602C84.5064 19.9716 84.7678 21.1534 84.7678 22.5057C84.7678 23.8466 84.5064 25.0256 83.9837 26.0426C83.4609 27.054 82.7166 27.8437 81.7507 28.4119C80.7905 28.9744 79.6484 29.2557 78.3246 29.2557ZM78.3416 26.4432C78.9439 26.4432 79.4467 26.2727 79.8501 25.9318C80.2536 25.5852 80.5575 25.1136 80.7621 24.517C80.9723 23.9205 81.0774 23.2415 81.0774 22.4801C81.0774 21.7188 80.9723 21.0398 80.7621 20.4432C80.5575 19.8466 80.2536 19.375 79.8501 19.0284C79.4467 18.6818 78.9439 18.5085 78.3416 18.5085C77.7337 18.5085 77.2223 18.6818 76.8075 19.0284C76.3984 19.375 76.0888 19.8466 75.8786 20.4432C75.674 21.0398 75.5717 21.7188 75.5717 22.4801C75.5717 23.2415 75.674 23.9205 75.8786 24.517C76.0888 25.1136 76.3984 25.5852 76.8075 25.9318C77.2223 26.2727 77.7337 26.4432 78.3416 26.4432ZM91.9524 29.2131C90.9581 29.2131 90.0575 28.9574 89.2507 28.446C88.4496 27.929 87.8132 27.1705 87.3416 26.1705C86.8757 25.1648 86.6428 23.9318 86.6428 22.4716C86.6428 20.9716 86.8842 19.7244 87.3672 18.7301C87.8501 17.7301 88.4922 16.983 89.2933 16.4886C90.1001 15.9886 90.9837 15.7386 91.9439 15.7386C92.6768 15.7386 93.2876 15.8636 93.7763 16.1136C94.2706 16.358 94.6683 16.6648 94.9695 17.0341C95.2763 17.3977 95.5092 17.7557 95.6683 18.108H95.7791V11.5455H99.4013V29H95.8217V26.9034H95.6683C95.4979 27.267 95.2564 27.6278 94.9439 27.9858C94.6371 28.3381 94.2365 28.6307 93.7422 28.8636C93.2536 29.0966 92.657 29.2131 91.9524 29.2131ZM93.103 26.3239C93.6882 26.3239 94.1825 26.1648 94.5859 25.8466C94.995 25.5227 95.3075 25.071 95.5234 24.4915C95.745 23.9119 95.8558 23.233 95.8558 22.4545C95.8558 21.6761 95.7479 21 95.532 20.4261C95.3161 19.8523 95.0036 19.4091 94.5945 19.0966C94.1854 18.7841 93.6882 18.6278 93.103 18.6278C92.5064 18.6278 92.0036 18.7898 91.5945 19.1136C91.1854 19.4375 90.8757 19.8864 90.6655 20.4602C90.4553 21.0341 90.3501 21.6989 90.3501 22.4545C90.3501 23.2159 90.4553 23.8892 90.6655 24.4744C90.8814 25.054 91.1911 25.5085 91.5945 25.8381C92.0036 26.1619 92.5064 26.3239 93.103 26.3239ZM102.386 29V15.9091H106.017V29H102.386ZM104.21 14.2216C103.67 14.2216 103.207 14.0426 102.821 13.6847C102.44 13.321 102.25 12.8864 102.25 12.3807C102.25 11.8807 102.44 11.4517 102.821 11.0938C103.207 10.7301 103.67 10.5483 104.21 10.5483C104.75 10.5483 105.21 10.7301 105.591 11.0938C105.977 11.4517 106.17 11.8807 106.17 12.3807C106.17 12.8864 105.977 13.321 105.591 13.6847C105.21 14.0426 104.75 14.2216 104.21 14.2216ZM115.965 15.9091V18.6364H107.886V15.9091H115.965ZM109.735 29V14.9631C109.735 14.0142 109.92 13.2273 110.289 12.6023C110.664 11.9773 111.175 11.5085 111.823 11.196C112.471 10.8835 113.207 10.7273 114.031 10.7273C114.587 10.7273 115.096 10.7699 115.556 10.8551C116.022 10.9403 116.369 11.017 116.596 11.0852L115.948 13.8125C115.806 13.767 115.63 13.7244 115.42 13.6847C115.215 13.6449 115.005 13.625 114.789 13.625C114.255 13.625 113.883 13.75 113.673 14C113.462 14.2443 113.357 14.5881 113.357 15.0312V29H109.735ZM118.183 29V15.9091H121.814V29H118.183ZM120.007 14.2216C119.467 14.2216 119.004 14.0426 118.618 13.6847C118.237 13.321 118.047 12.8864 118.047 12.3807C118.047 11.8807 118.237 11.4517 118.618 11.0938C119.004 10.7301 119.467 10.5483 120.007 10.5483C120.547 10.5483 121.007 10.7301 121.388 11.0938C121.774 11.4517 121.967 11.8807 121.967 12.3807C121.967 12.8864 121.774 13.321 121.388 13.6847C121.007 14.0426 120.547 14.2216 120.007 14.2216ZM130.637 29.2557C129.313 29.2557 128.168 28.9744 127.202 28.4119C126.242 27.8437 125.501 27.054 124.978 26.0426C124.455 25.0256 124.194 23.8466 124.194 22.5057C124.194 21.1534 124.455 19.9716 124.978 18.9602C125.501 17.9432 126.242 17.1534 127.202 16.5909C128.168 16.0227 129.313 15.7386 130.637 15.7386C131.961 15.7386 133.103 16.0227 134.063 16.5909C135.029 17.1534 135.773 17.9432 136.296 18.9602C136.819 19.9716 137.08 21.1534 137.08 22.5057C137.08 23.8466 136.819 25.0256 136.296 26.0426C135.773 27.054 135.029 27.8437 134.063 28.4119C133.103 28.9744 131.961 29.2557 130.637 29.2557ZM130.654 26.4432C131.256 26.4432 131.759 26.2727 132.163 25.9318C132.566 25.5852 132.87 25.1136 133.075 24.517C133.285 23.9205 133.39 23.2415 133.39 22.4801C133.39 21.7188 133.285 21.0398 133.075 20.4432C132.87 19.8466 132.566 19.375 132.163 19.0284C131.759 18.6818 131.256 18.5085 130.654 18.5085C130.046 18.5085 129.535 18.6818 129.12 19.0284C128.711 19.375 128.401 19.8466 128.191 20.4432C127.987 21.0398 127.884 21.7188 127.884 22.4801C127.884 23.2415 127.987 23.9205 128.191 24.517C128.401 25.1136 128.711 25.5852 129.12 25.9318C129.535 26.2727 130.046 26.4432 130.654 26.4432Z" fill="#340E0E"/>
</svg>

<svg version="1.2" xmlns="http://www.w3.org/2000/svg" viewBox="0 0 197 41" width="197" height="41">
	<title>logo-svg</title>
	<style>
		tspan { white-space:pre } 
		.s0 { fill: #3a72ec } 
		.t1 { font-size: 24px;fill: #3a72ec;font-weight: 400;font-family: "DejaVuSans", "DejaVu Sans" } 
		.s2 { fill: #340e0e } 
	</style>
	<path id="Layer" fill-rule="evenodd" class="s0" d="m0.7 20.1c0-11 8.9-20 20-20 11 0 20 9 20 20 0 11.1-9 20-20 20-11.1 0-20-8.9-20-20zm26.2-10.6c0.3-1.1-0.7-1.8-1.7-1.1l-13.3 9.5c-1.1 0.8-0.9 2.2 0.2 2.2h3.5 6.9l-5.6 2-2.5 8.7c-0.3 1.1 0.8 1.7 1.7 1.1l13.4-9.6c1-0.7 0.9-2.2-0.3-2.2h-5.3z"/>
	<text id="Desk" style="transform: matrix(1,0,0,1,137,29)" >
		<tspan x="0" y="0" class="t1">D</tspan><tspan  y="0" class="t1">e</tspan><tspan  y="0" class="t1">s</tspan><tspan  y="0" class="t1">k</tspan><tspan  y="0" class="t1">
</tspan>
	</text>
	<path id="Layer" fill-rule="evenodd" class="s2" d="m50.5 11.5h4.6l4.8 11.8h0.2l4.8-11.8h4.5v17.5h-3.5v-11.4h-0.2l-4.5 11.3h-2.4l-4.6-11.3h-0.1v11.4h-3.6zm27.8 17.7q-2 0-3.4-0.8-1.5-0.9-2.2-2.4-0.8-1.5-0.8-3.5 0-2.1 0.8-3.6 0.7-1.5 2.2-2.4 1.4-0.8 3.4-0.8 2 0 3.5 0.8 1.4 0.9 2.2 2.4 0.8 1.5 0.8 3.6 0 2-0.8 3.5-0.8 1.5-2.2 2.4-1.5 0.8-3.5 0.8zm0-2.8q0.9 0 1.6-0.5 0.6-0.5 0.9-1.4 0.3-0.9 0.3-2.1 0-1.1-0.3-2-0.3-0.9-0.9-1.4-0.7-0.5-1.6-0.5-0.9 0-1.5 0.5-0.6 0.5-0.9 1.4-0.3 0.9-0.3 2 0 1.2 0.3 2.1 0.3 0.9 0.9 1.4 0.6 0.5 1.5 0.5zm13.7 2.8q-1.5 0-2.7-0.8-1.3-0.8-2-2.3-0.7-1.5-0.7-3.7 0-2.2 0.8-3.7 0.7-1.5 1.9-2.3 1.2-0.7 2.6-0.7 1.1 0 1.9 0.4 0.7 0.3 1.2 0.9 0.4 0.5 0.7 1.1h0.1v-6.6h3.6v17.5h-3.6v-2.1h-0.1q-0.3 0.5-0.8 1-0.4 0.6-1.2 0.9-0.7 0.4-1.7 0.4zm1.1-2.9q0.9 0 1.5-0.5 0.6-0.5 0.9-1.4 0.4-0.8 0.4-2 0-1.2-0.4-2-0.3-0.9-0.9-1.3-0.6-0.5-1.5-0.5-0.9 0-1.5 0.5-0.6 0.5-0.9 1.3-0.3 0.9-0.3 2 0 1.2 0.3 2 0.3 0.9 0.9 1.4 0.6 0.5 1.5 0.5zm9.3 2.7v-13.1h3.6v13.1zm1.8-14.8q-0.8 0-1.3-0.6-0.6-0.5-0.6-1.3 0-0.7 0.6-1.3 0.5-0.5 1.3-0.5 0.9 0 1.4 0.5 0.6 0.6 0.6 1.3 0 0.8-0.6 1.3-0.5 0.6-1.4 0.6zm11.8 1.7v2.7h-2.6v10.4h-3.6v-10.4h-1.9v-2.7h1.9v-1q0-1.4 0.5-2.3 0.6-1 1.6-1.4 0.9-0.5 2.2-0.5 0.8 0 1.5 0.1 0.7 0.1 1 0.2l-0.6 2.8q-0.2-0.1-0.5-0.2-0.4 0-0.7 0-0.8 0-1.1 0.4-0.3 0.3-0.3 1v0.9zm2.2 13.1v-13.1h3.6v13.1zm1.9-14.8q-0.8 0-1.4-0.6-0.6-0.5-0.6-1.3 0-0.7 0.6-1.3 0.6-0.5 1.4-0.5 0.8 0 1.3 0.5 0.6 0.6 0.6 1.3 0 0.8-0.6 1.3-0.5 0.6-1.3 0.6zm10.6 15q-2 0-3.4-0.8-1.5-0.9-2.3-2.4-0.8-1.5-0.8-3.5 0-2.1 0.8-3.6 0.8-1.5 2.3-2.4 1.4-0.8 3.4-0.8 2 0 3.4 0.8 1.5 0.9 2.2 2.4 0.8 1.5 0.8 3.6 0 2-0.8 3.5-0.7 1.5-2.2 2.4-1.4 0.8-3.4 0.8zm0-2.8q0.9 0 1.5-0.5 0.6-0.5 0.9-1.4 0.3-0.9 0.3-2.1 0-1.1-0.3-2-0.3-0.9-0.9-1.4-0.6-0.5-1.5-0.5-0.9 0-1.5 0.5-0.6 0.5-1 1.4-0.3 0.9-0.3 2 0 1.2 0.3 2.1 0.4 0.9 1 1.4 0.6 0.5 1.5 0.5z"/>
</svg>
